public/img/edit--inactive.svg

<svg width="20" height="20" viewBox="0 0 20 20" fill="none" xmlns="http://www.w3.org/2000/svg">
<path d="M14 0H6C2.691 0 0 2.691 0 6V19C0 19.2652 0.105357 19.5196 0.292893 19.7071C0.48043 19.8946 0.734784 20 1 20H14C17.309 20 20 17.309 20 14V6C20 2.691 17.309 0 14 0ZM6.999 15H5V13.001L10.53 7.479L12.529 9.478L6.999 15ZM13.472 8.535L11.473 6.536L12.997 5.013L14.996 7.012L13.472 8.535Z" fill="#C4C4C4"/>
</svg>

<svg width="20" height="20" fill="none" xmlns="http://www.w3.org/2000/svg"><path d="M14 0H6C2.691 0 0 2.691 0 6v13a1 1 0 001 1h13c3.309 0 6-2.691 6-6V6c0-3.309-2.691-6-6-6zM6.999 15H5v-1.999l5.53-5.522 1.999 1.999L6.999 15zm6.473-6.465l-1.999-1.999 1.524-1.523 1.999 1.999-1.524 1.523z" fill="#C4C4C4"/></svg>
